core/static/img/icons/log-out.svg

<svg width="24" height="24" viewBox="0 0 24 24" fill="none" xmlns="http://www.w3.org/2000/svg">
<path fill-rule="evenodd" clip-rule="evenodd" d="M9.70725 2.4087C9 3.03569 9 4.18259 9 6.4764V17.5236C9 19.8174 9 20.9643 9.70725 21.5913C10.4145 22.2183 11.4955 22.0297 13.6576 21.6526L15.9864 21.2465C18.3809 20.8288 19.5781 20.62 20.2891 19.7417C21 18.8635 21 17.5933 21 15.0529V8.94711C21 6.40671 21 5.13652 20.2891 4.25826C19.5781 3.37999 18.3809 3.17118 15.9864 2.75354L13.6576 2.34736C11.4955 1.97026 10.4145 1.78171 9.70725 2.4087ZM12 10.1686C12.4142 10.1686 12.75 10.52 12.75 10.9535V13.0465C12.75 13.48 12.4142 13.8314 12 13.8314C11.5858 13.8314 11.25 13.48 11.25 13.0465V10.9535C11.25 10.52 11.5858 10.1686 12 10.1686Z" fill="#C8C9CA"/>
<path d="M7.54717 4.5C5.48889 4.503 4.41599 4.54826 3.73223 5.23202C3 5.96425 3 7.14276 3 9.49979V14.4998C3 16.8568 3 18.0353 3.73223 18.7676C4.41599 19.4513 5.48889 19.4966 7.54717 19.4996C7.49985 18.8763 7.49992 18.1557 7.50001 17.3768V6.6227C7.49992 5.84388 7.49985 5.1233 7.54717 4.5Z" fill="#C8C9CA"/>
</svg>

<svg xmlns="http://www.w3.org/2000/svg" width="24" height="24" fill="none"><path fill="#C8C9CA" fill-rule="evenodd" d="M9.707 2.409C9 3.036 9 4.183 9 6.476v11.048c0 2.293 0 3.44.707 4.067.707.627 1.788.439 3.95.062l2.33-.406c2.394-.418 3.591-.627 4.302-1.505.711-.879.711-2.149.711-4.69V8.948c0-2.54 0-3.81-.71-4.689-.712-.878-1.91-1.087-4.304-1.504l-2.328-.407c-2.162-.377-3.243-.565-3.95.062ZM12 10.169c.414 0 .75.351.75.784v2.094c0 .433-.336.784-.75.784s-.75-.351-.75-.784v-2.094c0-.433.336-.784.75-.784Z" clip-rule="evenodd"/><path fill="#C8C9CA" d="M7.547 4.5c-2.058.003-3.131.048-3.815.732C3 5.964 3 7.142 3 9.5v5c0 2.357 0 3.535.732 4.268.684.683 1.757.729 3.815.732-.047-.624-.047-1.344-.047-2.123V6.623c0-.78 0-1.5.047-2.123Z"/></svg>
